domfk/img/advantages/icon-3.svg

<svg width="34" height="34" viewBox="0 0 34 34" fill="none" xmlns="http://www.w3.org/2000/svg">
<path d="M32.6834 16.0166L17.9667 1.29992C17.35 0.683252 16.5 0.333252 15.6167 0.333252H3.66671C1.83337 0.333252 0.333374 1.83325 0.333374 3.66659V15.6166C0.333374 16.4999 0.683374 17.3499 1.31671 17.9666L16.0334 32.6833C17.3334 33.9833 19.45 33.9833 20.75 32.6833L32.7 20.7333C34 19.4333 34 17.3333 32.6834 16.0166ZM18.3834 30.3333L3.66671 15.6166V3.66659H15.6167L30.3334 18.3833L18.3834 30.3333Z" fill="#333333"/>
</svg>

<svg width="34" height="34" fill="none" xmlns="http://www.w3.org/2000/svg"><path d="M32.683 16.017L17.967 1.3a3.33 3.33 0 00-2.35-.967H3.667A3.343 3.343 0 00.333 3.667v11.95c0 .883.35 1.733.984 2.35l14.716 14.716a3.34 3.34 0 004.717 0l11.95-11.95c1.3-1.3 1.3-3.4-.017-4.716zm-14.3 14.316L3.667 15.617V3.667h11.95l14.716 14.716-11.95 11.95z" fill="#333"/></svg>
